.icons/oomox-ad/32x32/mimetypes/text-x-hex.svg

<svg xmlns="http://www.w3.org/2000/svg" width="32" height="32" version="1.1">
 <path style="opacity:0.2" d="M 6.375,3 C 5.61325,3 5,3.6244 5,4.4 V 29.6 C 5,30.37504 5.61325,31 6.375,31 h 19.25 C 26.3862,31 27,30.37504 27,29.6 V 12 L 20,10 18,3 Z"/>
 <path style="fill:#4f4f4f" d="M 6.375,2 C 5.61325,2 5,2.6244 5,3.4 V 28.6 C 5,29.37504 5.61325,30 6.375,30 h 19.25 C 26.3862,30 27,29.37504 27,28.6 V 11 L 20,9 18,2 Z"/>
 <path style="opacity:0.1;fill:#ffffff" d="M 6.375,2 C 5.61325,2 5,2.6247906 5,3.4003906 v 1 C 5,3.6247906 5.61325,3 6.375,3 H 18 V 2 Z"/>
 <path style="opacity:0.5;fill:#ffffff" d="M 8.5,6 C 8.223,6 8,6.223 8,6.5 v 3 C 8,9.777 8.223,10 8.5,10 h 2 C 10.777,10 11,9.777 11,9.5 v -3 C 11,6.223 10.777,6 10.5,6 Z m 4.75,0 C 13.111,6 13,6.1115 13,6.25 v 3.5 C 13,9.8885 13.111,10 13.25,10 h 0.5 C 13.889,10 14,9.8885 14,9.75 V 6.25 C 14,6.1115 13.889,6 13.75,6 Z m 2,0 C 15.111,6 15,6.1115 15,6.25 v 3.5 C 15,9.8885 15.111,10 15.25,10 h 0.5 C 15.889,10 16,9.8885 16,9.75 V 6.25 C 16,6.1115 15.889,6 15.75,6 Z M 17.5,6 C 17.223,6 17,6.223 17,6.5 v 3 c 0,0.277 0.223,0.5 0.5,0.5 h 2 C 19.777,10 20,9.777 20,9.5 v -3 C 20,6.223 19.777,6 19.5,6 Z M 9,7 h 1 V 9 H 9 Z m 9,0 h 1 V 9 H 18 Z M 9.25,12 C 9.1115,12 9,12.111 9,12.25 v 3.5 C 9,15.889 9.1115,16 9.25,16 h 0.5 C 9.8885,16 10,15.889 10,15.75 v -3.5 C 10,12.111 9.8885,12 9.75,12 Z m 3.25,0 C 12.223,12 12,12.223 12,12.5 v 3 c 0,0.277 0.223,0.5 0.5,0.5 h 2 c 0.277,0 0.5,-0.223 0.5,-0.5 v -3 C 15,12.223 14.777,12 14.5,12 Z m 4.75,0 C 17.111,12 17,12.111 17,12.25 v 3.5 c 0,0.139 0.111,0.25 0.25,0.25 h 0.5 C 17.889,16 18,15.889 18,15.75 v -3.5 C 18,12.111 17.889,12 17.75,12 Z m 2,0 C 19.111,12 19,12.111 19,12.25 v 3.5 c 0,0.139 0.111,0.25 0.25,0.25 h 0.5 C 19.889,16 20,15.889 20,15.75 v -3.5 C 20,12.111 19.889,12 19.75,12 Z m 2.25,0 C 21.223,12 21,12.223 21,12.5 v 3 c 0,0.277 0.223,0.5 0.5,0.5 h 2 c 0.277,0 0.5,-0.223 0.5,-0.5 v -3 C 24,12.223 23.777,12 23.5,12 Z M 13,13 h 1 v 2 h -1 z m 9,0 h 1 v 2 H 22 Z M 8.5,17 C 8.223,17 8,17.223 8,17.5 v 3 C 8,20.777 8.223,21 8.5,21 h 2 c 0.277,0 0.5,-0.223 0.5,-0.5 v -3 C 11,17.223 10.777,17 10.5,17 Z m 4,0 C 12.223,17 12,17.223 12,17.5 v 3 c 0,0.277 0.223,0.5 0.5,0.5 h 2 c 0.277,0 0.5,-0.223 0.5,-0.5 v -3 C 15,17.223 14.777,17 14.5,17 Z m 4.75,0 C 17.111,17 17,17.111 17,17.25 v 3.5 c 0,0.139 0.111,0.25 0.25,0.25 h 0.5 C 17.889,21 18,20.889 18,20.75 v -3.5 C 18,17.111 17.889,17 17.75,17 Z m 2,0 C 19.111,17 19,17.111 19,17.25 v 3.5 c 0,0.139 0.111,0.25 0.25,0.25 h 0.5 C 19.889,21 20,20.889 20,20.75 v -3.5 C 20,17.111 19.889,17 19.75,17 Z m 2.25,0 C 21.223,17 21,17.223 21,17.5 v 3 c 0,0.277 0.223,0.5 0.5,0.5 h 2 c 0.277,0 0.5,-0.223 0.5,-0.5 v -3 C 24,17.223 23.777,17 23.5,17 Z M 9,18 h 1 v 2 H 9 Z m 4,0 h 1 v 2 h -1 z m 9,0 h 1 v 2 H 22 Z M 8.5,23 C 8.223,23 8,23.223 8,23.5 v 3 C 8,26.777 8.223,27 8.5,27 h 2 c 0.277,0 0.5,-0.223 0.5,-0.5 v -3 C 11,23.223 10.777,23 10.5,23 Z m 4.75,0 C 13.111,23 13,23.111 13,23.25 v 3.5 c 0,0.138 0.111,0.25 0.25,0.25 h 0.5 C 13.889,27 14,26.889 14,26.75 v -3.5 C 14,23.112 13.889,23 13.75,23 Z m 2,0 C 15.111,23 15,23.111 15,23.25 v 3.5 c 0,0.138 0.111,0.25 0.25,0.25 h 0.5 C 15.889,27 16,26.889 16,26.75 v -3.5 C 16,23.112 15.889,23 15.75,23 Z m 2.25,0 C 17.223,23 17,23.223 17,23.5 v 3 c 0,0.277 0.223,0.5 0.5,0.5 h 2 c 0.277,0 0.5,-0.223 0.5,-0.5 v -3 C 20,23.223 19.777,23 19.5,23 Z m 4.75,0 C 22.112,23 22,23.111 22,23.25 v 3.5 c 0,0.138 0.111,0.25 0.25,0.25 h 0.5 C 22.888,27 23,26.889 23,26.75 v -3.5 C 23,23.112 22.889,23 22.75,23 Z M 9,24 h 1 v 2 H 9 Z m 9,0 h 1 v 2 h -1 z"/>
 <path style="opacity:0.2" d="M 27,12 18,3 v 7.59375 C 18,11.373375 18.62775,12 19.40625,12 Z"/>
 <path style="fill:#696969" d="M 27,11 18,2 V 9.59375 C 18,10.373375 18.62775,11 19.40625,11 Z"/>
</svg>

<svg xmlns="http://www.w3.org/2000/svg" width="32" height="32" version="1.1">
 <path style="opacity:0.2" d="M 7.25,5 C 6.5575,5 6,5.5575 6,6.25 v 22.5 C 6,29.442 6.5575,30 7.25,30 h 17.5 C 25.442,30 26,29.442 26,28.75 V 13 L 19.125,11.875 18,5 Z"/>
 <path fill="#4f4f4f" d="m7.25 4c-0.6925 0-1.25 0.5575-1.25 1.25v22.5c0 0.692 0.5575 1.25 1.25 1.25h17.5c0.692 0 1.25-0.558 1.25-1.25v-15.75l-6.875-1.125-1.125-6.875z"/>
 <path style="opacity:0.2" d="m 18,5 v 6.6667 c 0,0.736 0.597,1.333 1.333,1.333 H 26 l -8,-8 z"/>
 <path style="opacity:0.5;fill:#ffffff" d="M 8.5 6 C 8.223 6 8 6.223 8 6.5 L 8 9.5 C 8 9.777 8.223 10 8.5 10 L 10.5 10 C 10.777 10 11 9.777 11 9.5 L 11 6.5 C 11 6.223 10.777 6 10.5 6 L 8.5 6 z M 13.25 6 C 13.111 6 13 6.1115 13 6.25 L 13 9.75 C 13 9.8885 13.111 10 13.25 10 L 13.75 10 C 13.889 10 14 9.8885 14 9.75 L 14 6.25 C 14 6.1115 13.889 6 13.75 6 L 13.25 6 z M 15.25 6 C 15.111 6 15 6.1115 15 6.25 L 15 9.75 C 15 9.8885 15.111 10 15.25 10 L 15.75 10 C 15.889 10 16 9.8885 16 9.75 L 16 6.25 C 16 6.1115 15.889 6 15.75 6 L 15.25 6 z M 17.5 6 C 17.223 6 17 6.223 17 6.5 L 17 9.5 C 17 9.777 17.223 10 17.5 10 L 19.5 10 C 19.777 10 20 9.777 20 9.5 L 20 6.5 C 20 6.223 19.777 6 19.5 6 L 17.5 6 z M 9 7 L 10 7 L 10 9 L 9 9 L 9 7 z M 18 7 L 19 7 L 19 9 L 18 9 L 18 7 z M 9.25 12 C 9.1115 12 9 12.111 9 12.25 L 9 15.75 C 9 15.889 9.1115 16 9.25 16 L 9.75 16 C 9.8885 16 10 15.889 10 15.75 L 10 12.25 C 10 12.111 9.8885 12 9.75 12 L 9.25 12 z M 12.5 12 C 12.223 12 12 12.223 12 12.5 L 12 15.5 C 12 15.777 12.223 16 12.5 16 L 14.5 16 C 14.777 16 15 15.777 15 15.5 L 15 12.5 C 15 12.223 14.777 12 14.5 12 L 12.5 12 z M 17.25 12 C 17.111 12 17 12.111 17 12.25 L 17 15.75 C 17 15.889 17.111 16 17.25 16 L 17.75 16 C 17.889 16 18 15.889 18 15.75 L 18 12.25 C 18 12.111 17.889 12 17.75 12 L 17.25 12 z M 19.25 12 C 19.111 12 19 12.111 19 12.25 L 19 15.75 C 19 15.889 19.111 16 19.25 16 L 19.75 16 C 19.889 16 20 15.889 20 15.75 L 20 12.25 C 20 12.111 19.889 12 19.75 12 L 19.25 12 z M 21.5 12 C 21.223 12 21 12.223 21 12.5 L 21 15.5 C 21 15.777 21.223 16 21.5 16 L 23.5 16 C 23.777 16 24 15.777 24 15.5 L 24 12.5 C 24 12.223 23.777 12 23.5 12 L 21.5 12 z M 13 13 L 14 13 L 14 15 L 13 15 L 13 13 z M 22 13 L 23 13 L 23 15 L 22 15 L 22 13 z M 8.5 17 C 8.223 17 8 17.223 8 17.5 L 8 20.5 C 8 20.777 8.223 21 8.5 21 L 10.5 21 C 10.777 21 11 20.777 11 20.5 L 11 17.5 C 11 17.223 10.777 17 10.5 17 L 8.5 17 z M 12.5 17 C 12.223 17 12 17.223 12 17.5 L 12 20.5 C 12 20.777 12.223 21 12.5 21 L 14.5 21 C 14.777 21 15 20.777 15 20.5 L 15 17.5 C 15 17.223 14.777 17 14.5 17 L 12.5 17 z M 17.25 17 C 17.111 17 17 17.111 17 17.25 L 17 20.75 C 17 20.889 17.111 21 17.25 21 L 17.75 21 C 17.889 21 18 20.889 18 20.75 L 18 17.25 C 18 17.111 17.889 17 17.75 17 L 17.25 17 z M 19.25 17 C 19.111 17 19 17.111 19 17.25 L 19 20.75 C 19 20.889 19.111 21 19.25 21 L 19.75 21 C 19.889 21 20 20.889 20 20.75 L 20 17.25 C 20 17.111 19.889 17 19.75 17 L 19.25 17 z M 21.5 17 C 21.223 17 21 17.223 21 17.5 L 21 20.5 C 21 20.777 21.223 21 21.5 21 L 23.5 21 C 23.777 21 24 20.777 24 20.5 L 24 17.5 C 24 17.223 23.777 17 23.5 17 L 21.5 17 z M 9 18 L 10 18 L 10 20 L 9 20 L 9 18 z M 13 18 L 14 18 L 14 20 L 13 20 L 13 18 z M 22 18 L 23 18 L 23 20 L 22 20 L 22 18 z M 8.5 23 C 8.223 23 8 23.223 8 23.5 L 8 26.5 C 8 26.777 8.223 27 8.5 27 L 10.5 27 C 10.777 27 11 26.777 11 26.5 L 11 23.5 C 11 23.223 10.777 23 10.5 23 L 8.5 23 z M 13.25 23 C 13.111 23 13 23.111 13 23.25 L 13 26.75 C 13 26.888 13.111 27 13.25 27 L 13.75 27 C 13.889 27 14 26.889 14 26.75 L 14 23.25 C 14 23.112 13.889 23 13.75 23 L 13.25 23 z M 15.25 23 C 15.111 23 15 23.111 15 23.25 L 15 26.75 C 15 26.888 15.111 27 15.25 27 L 15.75 27 C 15.889 27 16 26.889 16 26.75 L 16 23.25 C 16 23.112 15.889 23 15.75 23 L 15.25 23 z M 17.5 23 C 17.223 23 17 23.223 17 23.5 L 17 26.5 C 17 26.777 17.223 27 17.5 27 L 19.5 27 C 19.777 27 20 26.777 20 26.5 L 20 23.5 C 20 23.223 19.777 23 19.5 23 L 17.5 23 z M 22.25 23 C 22.112 23 22 23.111 22 23.25 L 22 26.75 C 22 26.888 22.111 27 22.25 27 L 22.75 27 C 22.888 27 23 26.889 23 26.75 L 23 23.25 C 23 23.112 22.889 23 22.75 23 L 22.25 23 z M 9 24 L 10 24 L 10 26 L 9 26 L 9 24 z M 18 24 L 19 24 L 19 26 L 18 26 L 18 24 z"/>
 <path fill="#696969" d="m18 4v6.6667c0 0.736 0.597 1.333 1.333 1.333h6.667l-8-8z"/>
 <path fill="#ffffff" style="opacity:0.1" d="m7.25 4c-0.6925 0-1.25 0.5575-1.25 1.25v1c0-0.6925 0.5575-1.25 1.25-1.25h10.75v-1z"/>
</svg>
